X: 1
T: O'Dea's
M: 6/8
L: 1/8
R: jig
K: Gmaj
G3 GBd|BGD E3|DGB d2 d|edB def|
g3 ged|ege edB|dee edB|gdB A2 B:|
c3 cBA|Bdd d2 e|dBG GBd|edB AFD|
GBd gag|ege edB|dee edB|gdB A3:|
